packages/kaspersky-hexa-ui-icons/src/iconsSVGs/16/GearBroken.svg

<svg width="16" height="16" viewBox="0 0 16 16" fill="none" xmlns="http://www.w3.org/2000/svg">
<path fill-rule="evenodd" clip-rule="evenodd" d="M6.20854 1.55246C6.25266 1.23059 6.52765 0.990723 6.85252 0.990723H9.1466C9.47136 0.990723 9.74629 1.23043 9.79053 1.55216L10.0033 3.09898C10.2458 3.19821 10.4792 3.31487 10.702 3.44737C11.0103 3.63073 11.1118 4.02921 10.9288 4.33772L9.64539 6.50073C9.55736 6.6491 9.41397 6.75638 9.24679 6.79895C9.07961 6.84152 8.90237 6.81589 8.7541 6.72771C8.53376 6.59665 8.27657 6.52121 7.99977 6.52121C7.18311 6.52121 6.52108 7.18325 6.52108 7.9999C6.52108 8.81656 7.18311 9.4786 7.99977 9.4786C8.8164 9.4786 9.47842 8.81661 9.47846 7.99998C9.47848 7.64101 9.76949 7.35002 10.1285 7.35002H12.6431C12.8155 7.35002 12.9808 7.4185 13.1027 7.54041C13.2246 7.66231 13.2931 7.82765 13.2931 8.00004C13.2931 8.24233 13.2768 8.48109 13.2451 8.71523L14.4789 9.67335C14.7354 9.87253 14.8056 10.2305 14.6432 10.5117L13.4962 12.4985C13.3337 12.7798 12.9885 12.898 12.6877 12.7753L11.241 12.1851C10.8657 12.4761 10.4499 12.7179 10.0033 12.9007L9.79053 14.4479C9.74629 14.7696 9.47136 15.0093 9.1466 15.0093H6.85252C6.52765 15.0093 6.25266 14.7695 6.20854 14.4476L5.99653 12.9008C5.54985 12.7181 5.13398 12.4762 4.75859 12.1851L3.31229 12.7752C3.01148 12.8979 2.66626 12.7797 2.50382 12.4984L1.35679 10.5116C1.1944 10.2304 1.26453 9.87243 1.52104 9.67324L2.75448 8.71543C2.72278 8.48116 2.70644 8.24226 2.70644 7.99984C2.70644 7.75774 2.72274 7.51916 2.75435 7.28519L1.52017 6.3277C1.26348 6.12856 1.19325 5.77048 1.35568 5.48913L2.50272 3.50241C2.6651 3.22115 3.01016 3.10291 3.31091 3.22546L4.75793 3.81508C5.13351 3.52376 5.54963 3.28171 5.99659 3.09886L6.20854 1.55246ZM7.41951 2.29072L7.17565 4.06985L6.78488 4.19448C6.23295 4.37051 5.73246 4.66373 5.31291 5.04556L5.00975 5.32147L3.34519 4.64321L2.76501 5.64811L4.18388 6.74888L4.09711 7.14913C4.0378 7.42269 4.00644 7.70723 4.00644 7.99984C4.00644 8.29266 4.03785 8.5774 4.09724 8.85115L4.18405 9.25125L2.76598 10.3524L3.34616 11.3573L5.00999 10.6785L5.31329 10.9545C5.73275 11.3361 6.23309 11.6292 6.78484 11.8052L7.1756 11.9298L7.41951 13.7093H8.57987L8.82462 11.9296L9.21513 11.805C9.76673 11.629 10.2669 11.336 10.6863 10.9544L10.9896 10.6784L12.6538 11.3574L13.234 10.3525L11.8156 9.25107L11.9023 8.85098C11.9167 8.78463 11.9295 8.71763 11.9405 8.65002H10.702C10.4093 9.87103 9.31052 10.7786 7.99977 10.7786C6.46514 10.7786 5.22108 9.53453 5.22108 7.9999C5.22108 6.46527 6.46514 5.22121 7.99977 5.22121C8.28478 5.22121 8.56032 5.26431 8.81987 5.3444L9.45221 4.27866C9.37432 4.24823 9.29524 4.22019 9.21508 4.19461L8.82457 4.07001L8.57987 2.29072H7.41951Z" fill="black"/>
</svg>

<svg xmlns="http://www.w3.org/2000/svg" width="16" height="16" fill="none" viewBox="0 0 16 16"><path fill="#000" fill-rule="evenodd" d="M6.2085 1.5525a.65.65 0 0 1 .644-.5618h2.2941a.65.65 0 0 1 .644.5615l.2127 1.5468c.2425.0992.4759.2159.6987.3484a.65.65 0 0 1 .2268.8903l-1.2834 2.163a.65.65 0 0 1-.8913.227 1.47 1.47 0 0 0-.7543-.2065c-.8167 0-1.4787.662-1.4787 1.4787s.662 1.4787 1.4787 1.4787S9.4784 8.8166 9.4785 8a.65.65 0 0 1 .65-.65h2.5146a.65.65 0 0 1 .65.65c0 .2423-.0163.481-.048.7152l1.2338.9581a.65.65 0 0 1 .1643.8384l-1.147 1.9868a.65.65 0 0 1-.8085.2768l-1.4467-.5902a5.3 5.3 0 0 1-1.2377.7156l-.2128 1.5472a.65.65 0 0 1-.6439.5614h-2.294a.65.65 0 0 1-.644-.5617l-.212-1.5468a5.3 5.3 0 0 1-1.238-.7157l-1.4463.5901a.65.65 0 0 1-.8085-.2768l-1.147-1.9868a.65.65 0 0 1 .1642-.8384l1.2335-.9578a5.3 5.3 0 0 1-.048-.7156c0-.242.0162-.4806.0478-.7146l-1.2341-.9575a.65.65 0 0 1-.1645-.8386l1.147-1.9867a.65.65 0 0 1 .8082-.277l1.447.5897a5.3 5.3 0 0 1 1.2387-.7162zm1.211.7382-.2439 1.7791-.3907.1247a3.99 3.99 0 0 0-1.472.851l-.3031.276-1.6646-.6783-.5802 1.005 1.419 1.1006-.0868.4002a4 4 0 0 0-.0907.8507c0 .2929.0314.5776.0908.8514l.0869.4-1.4181 1.1012.5802 1.0049 1.6638-.6788.3033.276a3.99 3.99 0 0 0 1.4715.8507l.3908.1246.244 1.7795H8.58l.2447-1.7797.3905-.1246a3.99 3.99 0 0 0 1.4712-.8506l.3033-.276 1.6642.679.5802-1.0049-1.4184-1.1014.0867-.4001a4 4 0 0 0 .0382-.201H10.702c-.2927 1.221-1.3915 2.1286-2.7022 2.1286-1.5347 0-2.7787-1.244-2.7787-2.7787 0-1.5346 1.244-2.7787 2.7787-2.7787.285 0 .5605.0431.82.1232l.6324-1.0657a4 4 0 0 0-.2371-.084L8.8246 4.07l-.2447-1.7793z"/></svg>
